!!!SOCIAL_FUNCTION:	harvest dance songs
!!!PDT:	1957
!!!OTL: No_37_The_Sun-Youth_Has_Risen_in_the_East.krn
!!!LING_GROUP: Keresan
!!!LANG: Tone
!!!REG: Southwest
**kern
*staff1
=1-
*clefF4
*k[b-]
*M2/4
16G\LL
16F\J
8F\J
16G\LK
8.F\J
=2
16G\LL
16F\J
8F\J
8F\L
8F\J
=3
8F\L
8F\J
16G\LL
16F\J
8F\J
=4
8c\L
16d\L
16c\JJ
16d\LL
16c\
16B-\
16A\JJ
=5
*M3/4
8B-\L
8B-\J
8B-\L
8B-\J
16G\LL
16F\J
8F\J
=6
*M2/4
8B-\L
8B-\J
8B-\L
8A\J
=7
8B-\L
8B-\J
8B-\L
16B-\Jk
16r
=8
8B-\L
8B-\J
8A-\L
8A-\J
=9
8B-\L
8B-\J
8A-\L
8A-\J
=10
8B-\L
8B-\J
16c\LL
16B-\
16.A\
32A\JJk
=11
*M3/4
4B-\
8B-\L
16B-\Jk
16r
8B-\L
8B-\J
=12
*M2/4
8d\L
8d\J
16c\LL
16B-\J
8B-\J
=13
16B-\LK
8.B-\J
8B-\L
8B-\J
=14
*M3/4
16c\LL
16B-\J
8B-\J
8c\L
8c\J
8.B-\L
16B-\Jk
=15
*M5/8
16c\LL
16B-\J
8B-\
8B-\
8B-\J
8r
=16
*M2/4
8B-\L
8B-\J
8B-\L
8B-\J
=17
4B-\
16G\LL
16F\J
8F\J
=18
8c\L
16d\L
16c\JJ
16d\LL
16c\
16B-\
16A\JJ
=19
*M3/4
8B-\L
8B-\J
8B-\L
8B-\J
16G\LL
16F\J
8F\J
=20
*M2/4
8B-\L
8B-\J
8B-\L
8A\J
=21
8B-\L
8B-\J
8B-\L
16B-\Jk
16r
=22
8B-\L
8B-\J
8A-\L
8A-\J
=23
8B-\L
8B-\J
8A-\L
8A-\J
=24
8B-\L
8B-\J
16c\LL
16B-\
16.A\
32A\JJk
=25
*M3/4
4B-\
8B-\L
8B-\J
8B-\L
8B-\J
=26
*M2/4
8d\L
8d\J
16c\LL
16B-\J
8B-\J
=27
16B-\LK
8.B-\J
8B-\L
8B-\J
=28
*M3/4
16c\LL
16B-\J
8B-\J
8c\L
8c\J
8.B-\L
16B-\Jk
=29
16c\LL
16B-\J
8B-\J
8B-\L
8B-\J
8B-\L
8B-\J
=30
8B-\L
8B-\J
8B-\L
16B-\Jk
32r
32B-\
4c\
=31||
=
*k[b-e-a-d-g-]
8f\L
8f\J
8f\L
8f\J
16f\LL
16e-\
16e-\
16d-\JJ
=32
16e-\LL
16B-\J
8B-\J
8B-\L
8B-\J
16f\LL
16e-\
16e-\
16d-\JJ
=33
8d-\L
16d-\L
16A-\JJ
8B-\L
16.B-\L
32A-\JJk
8B-\L
16B-\Jk
16r
=34
!!pagebreak:default
*M2/4
8f\L
16.d-\L
32d-\JJk
4f\
=35
16f\LL
16e-\J
8e-\J
16e-\LL
16d-\J
8d-\J
=36
*M3/4
8d-\L
16B-\L
16B-\JJ
16B-\LL
16A-\J
8A-\J
8B-\L
16B-\Jk
16r
=37
*M2/4
8e-\L
16.B-\L
32B-\JJk
4e-\
=38
*M3/4
8d-\L
8d-\J
8d-\
24e-\LL
24d-\
24B-\JJ
16B-\LK
8.A-\J
=39
16e-\LL
16d-\J
8d-\J
8d-\L
16.d-\L
32B-\JJk
16d-\LK
8.B-\J
=40
*M2/4
32B-\LLK
16.A-\J
8A-\J
8A-\L
8A-\J
=41
16A-\LL
16F\J
8F\J
8F\
8r
=42
8A-\L
8F\J
4r
=43
*M3/4
8F\L
8F\J
8F\
16r
16B-\
4c\
=44:|!
*M2/4
32B-\LLK
16.A-\J
8A-\J
8A-\L
16A-\Jk
16r
=45
16A-\LL
16F\
16.F\
32F\JJk
4F\
=46
16A-\LL
16F\J
8F\J
16F\LL
16F\J
8F\J
=47
8F\L
8F\J
8F\L
8F\J
=48
16A-\LL
16F\J
8F\J
8B-\L
8B-\J
=49
4B-\
8B-\L
8B-\J
=50
16A-\LL
16F\J
8F\J
8B-\L
16B-\L
16A-\JJ
=51
4B-\
8B-\L
8B-\J
=52
*M3/4
8d-\L
16d-\L
16B-\JJ
8B-\L
8B-\J
8.B-\L
16B-\Jk
=53
16d-\LL
16B-\J
8B-\J
8B-\L
8B-\J
8r
8B-\
=54
*M7/8
8B-\L
8B-\J
4B-\
8.B-\L
16d-\K
8d-\J
=55
*M3/4
8f\L
8f\J
8f\L
8f\J
16f\LL
16e-\
16e-\
16d-\JJ
=56
16e-\LL
16B-\J
8B-\J
8B-\L
8B-\J
16f\LL
16e-\
16e-\
16B-\JJ
=57
8d-\L
16.d-\L
32A-\JJk
8B-\L
16.B-\L
32A-\JJk
8B-\L
16B-\Jk
16r
=58
*M2/4
8f\L
16.d-\L
32d-\JJk
4f\
=59
16f\LL
16e-\J
8e-\J
16e-\LL
16d-\J
8d-\J
=60
*M3/4
16d-\LL
16B-\J
8B-\J
16B-\LL
16A-\J
8A-\J
8B-\L
16B-\Jk
16r
=61
*M2/4
8e-\L
16.B-\L
32B-\JJk
4e-\
=62
*M3/4
8d-\L
8d-\J
8d-\
24e-\LL
24d-\
24B-\JJ
16B-\LK
8.A-\J
=63
16e-\LL
16d-\J
8d-\J
8d-\L
16.d-\L
32B-\JJk
16d-\LK
8.B-\J
=64
*M2/4
32B-\LLK
16.A-\J
8A-\J
8A-\L
16A-\Jk
16r
=65
!!pagebreak:default
8B-\L
16.A-\L
32A-\JJk
8A-\L
8A-\J
=66
16A-\LL
16F\J
8F\J
8F\
8r
=67
8A-\L
8F\J
4r
=68
8F\L
8F\J
4F\
==
*-
